X:2195
T:Bannaght lhiat, Kirree beg, my ghraih 
T:Adieu my lovely Nancy 
C:Traditional
O:Isle of Man
Z:Clague collection
B:Kiaull Vannin #195 
M:4/4 
L:1/4
Q:60 
K:G 
G|B B B/A/ B/c/|d>B G B/c/|d B/A/ G F| G3 G|B B B/A/ B/c/|d>B G B/c/|d B/A/ G F|G3 G/A/| 
B B B/A/ G|g g a g/f/|e e d B|A3 d|e>f g/f/ g/e/|e>d d G/B/|d c/A/ G F|G3|| 

